X:175
T:Wyres Ned Pugh - Fair Ellen Pugh
M:3/4
L:1/4
Q:90
C:Trad.
S:Davidsons Musical Miracles 1859
R:Waltz
K:G
d/c/ | B>c d | A B c | B G G | G2 A/G|
F>G A |E F G | F D D | D2 :||: D | A>B A | A F D | c>d c|
B2 G | G B d | E c c | B>c A | G2 :||
